usr/share/icons/biglinux-icons-material/scalable/apps/lock.svg

<?xml version="1.0" encoding="UTF-8" standalone="no"?>
<svg
   width="24"
   height="24"
   viewBox="0 0 6.349875 6.349875"
   version="1.1"
   id="svg3"
   sodipodi:docname="gdu-encrypted-lock.svg"
   inkscape:version="1.3 (0e150ed6c4, 2023-07-21)"
   xmlns:inkscape="http://www.inkscape.org/namespaces/inkscape"
   xmlns:sodipodi="http://sodipodi.sourceforge.net/DTD/sodipodi-0.dtd"
   xmlns:xlink="http://www.w3.org/1999/xlink"
   xmlns="http://www.w3.org/2000/svg"
   xmlns:svg="http://www.w3.org/2000/svg">
  <defs
     id="defs3">
    <linearGradient
       id="linearGradient3"
       inkscape:collect="always">
      <stop
         style="stop-color:#fece76;stop-opacity:1;"
         offset="0"
         id="stop3" />
      <stop
         style="stop-color:#feaf27;stop-opacity:1;"
         offset="1"
         id="stop4" />
    </linearGradient>
    <linearGradient
       x1="12"
       y1="0"
       x2="12"
       y2="12"
       gradientUnits="userSpaceOnUse"
       gradientTransform="matrix(0.24252994,0,0,0.24252994,0.26446199,0.26457625)"
       spreadMethod="pad"
       id="linearGradient28804">
      <stop
         style="stop-opacity:1;stop-color:#89a8f5"
         offset="0"
         id="stop28800" />
      <stop
         style="stop-opacity:1;stop-color:#5771e5"
         offset="1"
         id="stop28802" />
    </linearGradient>
    <radialGradient
       inkscape:collect="always"
       xlink:href="#linearGradient3"
       id="radialGradient4"
       cx="3.1749375"
       cy="0.26646954"
       fx="3.1749375"
       fy="0.26646954"
       r="2.9103117"
       gradientUnits="userSpaceOnUse" />
  </defs>
  <sodipodi:namedview
     id="namedview3"
     pagecolor="#ffffff"
     bordercolor="#000000"
     borderopacity="0.25"
     inkscape:showpageshadow="2"
     inkscape:pageopacity="0.0"
     inkscape:pagecheckerboard="0"
     inkscape:deskcolor="#d1d1d1"
     inkscape:zoom="4.4801844"
     inkscape:cx="-6.0265377"
     inkscape:cy="30.244291"
     inkscape:window-width="2560"
     inkscape:window-height="998"
     inkscape:window-x="0"
     inkscape:window-y="0"
     inkscape:window-maximized="1"
     inkscape:current-layer="svg3" />
  <path
     d="m 2.5380664,0.29490713 c 0.031749,0 0.062088,-0.004233 0.091015,-0.012347 0.3802869,-0.0250467 0.7605739,-0.0236357 1.1398025,0.002822 0.3443043,0.0275161 0.6776727,0.10195077 1.000458,0.22436224 0.5358589,0.22048177 0.9023878,0.60359083 1.1009978,1.14791623 0.1114755,0.3280769 0.1788548,0.6656785 0.1996682,1.011394 0.027516,0.4356719 0.017991,0.86958 -0.030338,1.3038409 C 6.0026286,4.2773369 5.9239607,4.5694312 5.8026076,4.8505895 5.5778925,5.3384715 5.2127748,5.6746621 4.7086652,5.8591613 4.3005094,5.9970947 3.8803594,6.0701182 3.4475096,6.0771736 2.9624497,6.1032787 2.4816231,6.065885 2.0050297,5.9681675 1.1298053,5.7737907 0.58830207,5.2393429 0.38440054,4.3655296 0.29761892,3.9728957 0.25740304,3.5746174 0.26586954,3.1721059 0.25634473,2.7434894 0.30149939,2.3219283 0.40239185,1.9056587 0.61722928,1.0900526 1.1354496,0.58417921 1.9567001,0.38874417 2.1482546,0.34182565 2.3426314,0.31007628 2.5380664,0.29490713 Z"
     style="fill:url(#radialGradient4);fill-rule:evenodd;stroke:none;stroke-width:0.352771;fill-opacity:1"
     id="path28806" />
  <path
     id="path18960"
     style="fill:#feaf27;fill-opacity:1;fill-rule:nonzero;stroke:#feaf27;stroke-width:0.264578;stroke-dasharray:none;stroke-opacity:1"
     d="m 3.1733873,1.1906016 c -0.6646247,0 -1.2049909,0.5373452 -1.2081713,1.2019701 v 0.7203552 h -0.07803 c -0.1796721,0 -0.3224546,0.1427836 -0.3224546,0.3224546 V 4.836302 c 0,0.1772867 0.1427825,0.3229713 0.3224546,0.3229713 h 2.5749856 c 0.1764913,0 0.3229713,-0.1456846 0.3229713,-0.3229713 V 3.4353815 c 0,-0.179671 -0.14648,-0.3224546 -0.3229713,-0.3224546 H 4.384659 V 2.3925717 C 4.3814999,1.7279468 3.8403972,1.1906016 3.1733873,1.1906016 Z m 0,0.3792975 c 0.4563329,0 0.8261306,0.366339 0.8324908,0.8226726 V 3.1129269 H 2.3445136 V 2.3925717 C 2.3508767,1.9362381 2.7194392,1.5698991 3.1733873,1.5698991 Z" />
  <g
     id="g18958"
     transform="matrix(0.59625476,0,0,0.59625476,-7.9346085,-4.5358082)">
    <path
       d="m 18.630214,9.6039647 c -1.114667,0 -2.021333,0.9013333 -2.026667,2.0160003 v 1.432 h 0.636 v -1.432 c 0.01067,-0.765334 0.629334,-1.38 1.390667,-1.38 0.765333,0 1.385333,0.614666 1.396,1.38 v 1.432 h 0.634667 v -1.432 c -0.0053,-1.114667 -0.912,-2.0160003 -2.030667,-2.0160003 z"
       style="fill:#cad8ed;fill-opacity:1;fill-rule:nonzero;stroke:none;stroke-width:1.33333"
       id="path28810" />
    <path
       d="m 16.472881,12.827965 h 4.318666 c 0.296,0 0.541334,0.24 0.541334,0.541333 v 2.349333 c 0,0.297334 -0.245334,0.541334 -0.541334,0.541334 h -4.318666 c -0.301334,0 -0.541334,-0.244 -0.541334,-0.541334 v -2.349333 c 0,-0.301333 0.24,-0.541333 0.541334,-0.541333 z"
       style="fill:#f7c04a;fill-opacity:1;fill-rule:nonzero;stroke:none;stroke-width:1.33333"
       id="path28812" />
    <path
       d="m 18.630214,13.655965 c -0.270667,0 -0.494667,0.224 -0.494667,0.494666 0.004,0.188 0.104,0.354667 0.265334,0.437334 v 0.609333 c 0,0.125333 0.104,0.229333 0.229333,0.229333 0.129333,0 0.229333,-0.104 0.229333,-0.229333 v -0.609333 c 0.166667,-0.08267 0.265334,-0.249334 0.265334,-0.437334 0,-0.270666 -0.218667,-0.494666 -0.494667,-0.494666 z"
       style="fill:#eb8117;fill-opacity:1;fill-rule:nonzero;stroke:none;stroke-width:1.33333"
       id="path28814" />
  </g>
</svg>

<svg xmlns="http://www.w3.org/2000/svg" xmlns:xlink="http://www.w3.org/1999/xlink" width="24" height="24" viewBox="0 0 6.35 6.35"><defs><radialGradient xlink:href="#a" id="b" cx="3.175" cy=".266" r="2.91" fx="3.175" fy=".266" gradientUnits="userSpaceOnUse"/><linearGradient id="a"><stop offset="0" style="stop-color:#fece76;stop-opacity:1"/><stop offset="1" style="stop-color:#feaf27;stop-opacity:1"/></linearGradient></defs><path d="M2.538.295A.335.335 0 0 0 2.63.283c.38-.025.76-.024 1.14.002a3.62 3.62 0 0 1 1 .225c.536.22.903.603 1.101 1.148.112.328.18.665.2 1.011.028.436.018.87-.03 1.304a3.166 3.166 0 0 1-.237.878c-.225.487-.59.824-1.094 1.008a4.125 4.125 0 0 1-1.261.218 5.644 5.644 0 0 1-1.443-.109C1.13 5.774.588 5.24.385 4.366a5.025 5.025 0 0 1-.12-1.194c-.009-.429.036-.85.137-1.266C.617 1.09 1.135.584 1.957.389c.191-.047.386-.079.581-.094Z" style="fill:url(#b);fill-rule:evenodd;stroke:none;stroke-width:.352771;fill-opacity:1"/><path d="M3.173 1.19c-.664 0-1.205.538-1.208 1.203v.72h-.078a.32.32 0 0 0-.322.322v1.401c0 .178.143.323.322.323h2.575a.325.325 0 0 0 .323-.323v-1.4a.323.323 0 0 0-.323-.323h-.077v-.72A1.21 1.21 0 0 0 3.173 1.19Zm0 .38c.457 0 .827.366.833.823v.72H2.345v-.72a.831.831 0 0 1 .828-.823Z" style="fill:#feaf27;fill-opacity:1;fill-rule:nonzero;stroke:#feaf27;stroke-width:.264578;stroke-dasharray:none;stroke-opacity:1"/><path d="M18.63 9.604a2.027 2.027 0 0 0-2.026 2.016v1.432h.636V11.62c.01-.765.629-1.38 1.39-1.38.766 0 1.386.615 1.396 1.38v1.432h.635V11.62a2.028 2.028 0 0 0-2.03-2.016z" style="fill:#cad8ed;fill-opacity:1;fill-rule:nonzero;stroke:none;stroke-width:1.33333" transform="matrix(.59625 0 0 .59625 -7.935 -4.536)"/><path d="M16.473 12.828h4.319c.296 0 .54.24.54.541v2.35a.544.544 0 0 1-.54.541h-4.32a.54.54 0 0 1-.54-.541v-2.35c0-.301.24-.541.54-.541z" style="fill:#f7c04a;fill-opacity:1;fill-rule:nonzero;stroke:none;stroke-width:1.33333" transform="matrix(.59625 0 0 .59625 -7.935 -4.536)"/><path d="M18.63 13.656a.498.498 0 0 0-.494.495.497.497 0 0 0 .265.437v.61c0 .125.104.229.23.229.129 0 .229-.104.229-.23v-.609a.494.494 0 0 0-.23-.932z" style="fill:#eb8117;fill-opacity:1;fill-rule:nonzero;stroke:none;stroke-width:1.33333" transform="matrix(.59625 0 0 .59625 -7.935 -4.536)"/></svg>
